src/images/badges/made-with-groovy.svg

<svg xmlns="http://www.w3.org/2000/svg" height="35" width="197"><g data-name="Layer 2"><g data-name="Layer 1"><path d="M34.7 0H197v35H34.7z" fill="#c1282d"/><path d="M0 0h112.5v35H0z" fill="#ef4041"/><path d="M15.8 13.5l2.5 6.5 2.5-6.5h1.9V22h-1.5v-2.8l.1-3.8-2.6 6.6h-1l-2.5-6.6.1 3.7v2.8h-1.5v-8.5h1.9zM31.9 20h-3.3l-.7 2h-1.5l3.2-8.5h1.3l3.3 8.5h-1.6zM29 18.8h2.5l-1.2-3.5c-.1 0-1.3 3.5-1.3 3.5zm8.7 3.2v-8.5h2.5a4.55 4.55 0 0 1 2 .5 3.16 3.16 0 0 1 1.4 1.4 5.37 5.37 0 0 1 .5 2.1v.4a3.61 3.61 0 0 1-.4 2.1 3.53 3.53 0 0 1-1.3 1.4 4.55 4.55 0 0 1-2 .5h-2.5zm1.5-7.3v6.1h1a2.19 2.19 0 0 0 1.7-.7 3.07 3.07 0 0 0 .6-2.1v-.5a3.7 3.7 0 0 0-.6-2.1 2.09 2.09 0 0 0-1.8-.7h-.9zm14 3.5h-3.5v2.6h4.1V22h-5.5v-8.5h5.6v1.2h-4.1V17h3.5zM70 19.9l1.3-6.4h1.5L70.9 22h-1.4l-1.6-6.2-1.6 6.2h-1.5l-1.9-8.5h1.5l1.3 6.4 1.6-6.4h1.3l1.6 6.4zm8.1 2.1h-1.5v-8.5h1.5zm10.5-7.3h-2.7V22h-1.5v-7.3h-2.6v-1.2h6.8zM99.2 22h-1.5v-3.8h-3.8V22h-1.5v-8.5h1.5V17h3.8v-3.6h1.5zm31.3-4.4h2.1v3.6a6.3 6.3 0 0 1-3.5 1.1 4.39 4.39 0 0 1-4.6-4.5 4.47 4.47 0 0 1 4.7-4.5 4.75 4.75 0 0 1 3.7 1.6l-1.5 1.4a2.46 2.46 0 0 0-2-1 2.34 2.34 0 0 0-2.4 2.5 2.34 2.34 0 0 0 2.4 2.5 3.08 3.08 0 0 0 1.3-.3v-2.4zm8.2 2.2h-1.3v2.3H135v-8.7h3.8c2.3 0 3.7 1.2 3.7 3.2a2.82 2.82 0 0 1-1.6 2.7l1.8 2.7h-2.5zm0-4.4h-1.3v2.5h1.3c1 0 1.5-.5 1.5-1.3s-.5-1.2-1.5-1.2zm5.6 2.4a4.7 4.7 0 1 1 4.7 4.5 4.53 4.53 0 0 1-4.7-4.5zm7 0a2.31 2.31 0 1 0-4.6 0 2.32 2.32 0 0 0 2.3 2.5 2.38 2.38 0 0 0 2.3-2.5zm4.1 0a4.7 4.7 0 1 1 4.7 4.5 4.53 4.53 0 0 1-4.7-4.5zm6.9 0a2.31 2.31 0 1 0-4.6 0 2.32 2.32 0 0 0 2.3 2.5 2.38 2.38 0 0 0 2.3-2.5zm12.8-4.4l-3.6 8.7h-2.3l-3.6-8.7h2.6l2.3 5.6 2.3-5.6zm5.7 5.6v3.1h-2.4V19l-3.2-5.5h2.5l2 3.4 2-3.4h2.3l-3.2 5.5z" fill="#fff"/></g></g></svg>

<svg xmlns="http://www.w3.org/2000/svg" viewBox="0 0 197 35" height="35" width="197">
  <title>made-with-groovy</title>
  <g id="Layer_2" data-name="Layer 2">
    <g id="Layer_1-2" data-name="Layer 1">
      <path d="M34.7,0H197V35H34.7Z" style="fill: #c1282d"/>
      <path d="M0,0H112.5V35H0Z" style="fill: #ef4041"/>
      <path d="M15.8,13.5,18.3,20l2.5-6.5h1.9V22H21.2V19.2l.1-3.8L18.7,22h-1l-2.5-6.6.1,3.7v2.8H13.8V13.4h1.9ZM31.9,20H28.6l-.7,2H26.4l3.2-8.5h1.3L34.2,22H32.6ZM29,18.8h2.5l-1.2-3.5C30.2,15.3,29,18.8,29,18.8ZM37.7,22V13.5h2.5a4.55,4.55,0,0,1,2,.5,3.16,3.16,0,0,1,1.4,1.4,5.37,5.37,0,0,1,.5,2.1v.4a3.61,3.61,0,0,1-.4,2.1,3.53,3.53,0,0,1-1.3,1.4,4.55,4.55,0,0,1-2,.5H37.9Zm1.5-7.3v6.1h1a2.19,2.19,0,0,0,1.7-.7,3.07,3.07,0,0,0,.6-2.1v-.5a3.7,3.7,0,0,0-.6-2.1,2.09,2.09,0,0,0-1.8-.7h-.9Zm14,3.5H49.7v2.6h4.1V22H48.3V13.5h5.6v1.2H49.8V17h3.5ZM70,19.9l1.3-6.4h1.5L70.9,22H69.5l-1.6-6.2L66.3,22H64.8l-1.9-8.5h1.5l1.3,6.4,1.6-6.4h1.3l1.6,6.4ZM78.1,22H76.6V13.5h1.5Zm10.5-7.3H85.9V22H84.4V14.7H81.8V13.5h6.8ZM99.2,22H97.7V18.2H93.9V22H92.4V13.5h1.5V17h3.8V13.4h1.5Zm31.3-4.4h2.1v3.6a6.3,6.3,0,0,1-3.5,1.1,4.39,4.39,0,0,1-4.6-4.5,4.47,4.47,0,0,1,4.7-4.5,4.75,4.75,0,0,1,3.7,1.6l-1.5,1.4a2.46,2.46,0,0,0-2-1,2.34,2.34,0,0,0-2.4,2.5,2.34,2.34,0,0,0,2.4,2.5,3.08,3.08,0,0,0,1.3-.3V17.6Zm8.2,2.2h-1.3v2.3H135V13.4h3.8c2.3,0,3.7,1.2,3.7,3.2a2.82,2.82,0,0,1-1.6,2.7l1.8,2.7h-2.5Zm0-4.4h-1.3v2.5h1.3c1,0,1.5-.5,1.5-1.3S139.7,15.4,138.7,15.4Zm5.6,2.4a4.7,4.7,0,1,1,4.7,4.5A4.53,4.53,0,0,1,144.3,17.8Zm7,0a2.31,2.31,0,1,0-4.6,0,2.32,2.32,0,0,0,2.3,2.5A2.38,2.38,0,0,0,151.3,17.8Zm4.1,0a4.7,4.7,0,1,1,4.7,4.5A4.53,4.53,0,0,1,155.4,17.8Zm6.9,0a2.31,2.31,0,1,0-4.6,0,2.32,2.32,0,0,0,2.3,2.5A2.38,2.38,0,0,0,162.3,17.8Zm12.8-4.4-3.6,8.7h-2.3l-3.6-8.7h2.6l2.3,5.6,2.3-5.6Zm5.7,5.6v3.1h-2.4V19l-3.2-5.5h2.5l2,3.4,2-3.4H184L180.8,19Z" style="fill: #fff"/>
    </g>
  </g>
</svg>
